src/lib/packages/icons/src/assets/line/face-grin-hearts.svg

<svg width="24" height="24" viewBox="0 0 24 24" fill="none" xmlns="http://www.w3.org/2000/svg">
<path d="M12 22.75C6.07 22.75 1.25 17.93 1.25 12C1.25 6.07 6.07 1.25 12 1.25C17.93 1.25 22.75 6.07 22.75 12C22.75 17.93 17.93 22.75 12 22.75ZM12 2.75C6.9 2.75 2.75 6.9 2.75 12C2.75 17.1 6.9 21.25 12 21.25C17.1 21.25 21.25 17.1 21.25 12C21.25 6.9 17.1 2.75 12 2.75ZM9.2 12.21C9.2 12.21 9.16 12.21 9.14 12.21C9.04 12.21 6.64 12 5.66 10.36C5.24 9.67 5.14 8.90999 5.36 8.25999C5.55 7.71999 5.97 7.3 6.54 7.09C6.93 6.95 7.28001 6.97 7.60001 7.06C7.78001 6.78 8.04001 6.53999 8.43001 6.39999C9.01001 6.18999 9.59 6.24 10.09 6.53C10.67 6.88 11.08 7.53 11.21 8.33C11.51 10.22 9.81 11.91 9.73 11.99C9.59 12.13 9.4 12.2 9.2 12.2V12.21ZM7.10001 8.49001C7.10001 8.49001 7.07001 8.49001 7.06001 8.49001C6.86001 8.56001 6.8 8.67 6.77 8.75C6.7 8.96 6.77 9.28 6.94 9.58C7.33 10.23 8.30001 10.54 8.90001 10.66C9.29001 10.18 9.83001 9.33001 9.71001 8.57001C9.66001 8.23001 9.5 7.94 9.31 7.83C9.24 7.79 9.13 7.75001 8.92 7.82001C8.79 7.87001 8.78 8.18001 8.78 8.24001C8.79 8.57001 8.59 8.88001 8.28 8.99001C7.97 9.10001 7.62 8.99 7.43 8.73C7.4 8.7 7.23001 8.5 7.10001 8.5V8.49001ZM14.79 12.21C14.59 12.21 14.41 12.13 14.26 12C14.19 11.93 12.48 10.23 12.78 8.34C12.9 7.54 13.31 6.88999 13.9 6.53999C14.39 6.24999 14.98 6.2 15.56 6.41C15.95 6.55 16.21 6.77999 16.4 7.03999C16.71 6.95999 17.06 6.95 17.45 7.09C18.02 7.3 18.44 7.71999 18.63 8.25999C18.86 8.89999 18.75 9.67 18.33 10.36C17.34 12 14.94 12.21 14.84 12.21C14.82 12.21 14.8 12.21 14.78 12.21H14.79ZM14.86 7.77C14.77 7.77 14.71 7.80001 14.67 7.82001C14.48 7.93001 14.32 8.23 14.27 8.56C14.15 9.32 14.69 10.18 15.08 10.65C15.69 10.54 16.66 10.23 17.05 9.57001C17.23 9.28001 17.29 8.95001 17.22 8.74001C17.19 8.66001 17.14 8.56 16.93 8.48C16.76 8.42 16.6 8.58 16.57 8.62C16.36 8.85999 16.02 8.95 15.73 8.83C15.44 8.72 15.24 8.43 15.25 8.12C15.25 8.08999 15.24 7.86 15.07 7.8C14.99 7.77 14.93 7.75999 14.87 7.75999L14.86 7.77ZM12 18.74C9.73 18.74 7.79 17.2 7.28 14.99C7.18 14.55 7.33 14.09 7.68 13.79C8.05 13.48 8.56001 13.39 9.01001 13.57C11.02 14.38 12.98 14.38 15 13.57C15.45 13.39 15.96 13.47 16.33 13.79C16.68 14.09 16.83 14.55 16.73 14.99C16.22 17.2 14.28 18.74 12.01 18.74H12ZM8.89 15.13C9.38 16.39 10.6 17.24 12 17.24C13.4 17.24 14.62 16.39 15.11 15.13C13.04 15.85 10.95 15.85 8.89 15.13Z" fill="currentColor"/>
</svg>

<svg xmlns="http://www.w3.org/2000/svg" width="24" height="24" fill="none"><path fill="currentColor" d="M12 22.75C6.07 22.75 1.25 17.93 1.25 12S6.07 1.25 12 1.25 22.75 6.07 22.75 12 17.93 22.75 12 22.75Zm0-20C6.9 2.75 2.75 6.9 2.75 12S6.9 21.25 12 21.25s9.25-4.15 9.25-9.25S17.1 2.75 12 2.75Zm-2.8 9.46h-.06c-.1 0-2.5-.21-3.48-1.85-.42-.69-.52-1.45-.3-2.1.19-.54.61-.96 1.18-1.17.39-.14.74-.12 1.06-.03.18-.28.44-.52.83-.66.58-.21 1.16-.16 1.66.13.58.35.99 1 1.12 1.8.3 1.89-1.4 3.58-1.48 3.66a.74.74 0 0 1-.53.21v.01ZM7.1 8.49h-.04c-.2.07-.26.18-.29.26-.07.21 0 .53.17.83.39.65 1.36.96 1.96 1.08.39-.48.93-1.33.81-2.09-.05-.34-.21-.63-.4-.74-.07-.04-.18-.08-.39-.01-.13.05-.14.36-.14.42a.77.77 0 0 1-.5.75.75.75 0 0 1-.85-.26c-.03-.03-.2-.23-.33-.23v-.01Zm7.69 3.72c-.2 0-.38-.08-.53-.21-.07-.07-1.78-1.77-1.48-3.66.12-.8.53-1.45 1.12-1.8.49-.29 1.08-.34 1.66-.13.39.14.65.37.84.63.31-.08.66-.09 1.05.05.57.21.99.63 1.18 1.17.23.64.12 1.41-.3 2.1-.99 1.64-3.39 1.85-3.49 1.85h-.06.01Zm.07-4.44c-.09 0-.15.03-.19.05-.19.11-.35.41-.4.74-.12.76.42 1.62.81 2.09.61-.11 1.58-.42 1.97-1.08.18-.29.24-.62.17-.83-.03-.08-.08-.18-.29-.26-.17-.06-.33.1-.36.14-.21.24-.55.33-.84.21a.747.747 0 0 1-.48-.71c0-.03-.01-.26-.18-.32a.544.544 0 0 0-.2-.04l-.01.01ZM12 18.74c-2.27 0-4.21-1.54-4.72-3.75-.1-.44.05-.9.4-1.2.37-.31.88-.4 1.33-.22 2.01.81 3.97.81 5.99 0 .45-.18.96-.1 1.33.22.35.3.5.76.4 1.2a4.817 4.817 0 0 1-4.72 3.75H12Zm-3.11-3.61A3.322 3.322 0 0 0 12 17.24c1.4 0 2.62-.85 3.11-2.11-2.07.72-4.16.72-6.22 0Z"/></svg>
